Origami/16x16/apps/com.github.donadigo.eddy.svg

<svg width="16" height="16" version="1" xmlns="http://www.w3.org/2000/svg">
 <path d="m8.0061281 1.1376112e-6c-3.86261 0-6.9938742 2.863159-6.9938742 6.395045v1.302897c-2.172e-4 4e-3 2.121e-4 0.0077 0 0.01171-0.20019594 3.7667789 2.0694155 6.9718759 5.5756534 8.0086379 1.1116743 0.384736 1.6493382 0.260997 1.9156018 0.268542 2.1277769 0.05658 3.0507309-2.058919 2.2134909-3.912594 2.653265-0.074239 4.282155-3.2883619 4.283-5.6791949 0-3.531884-3.131263-6.395043-6.9938719-6.395043z" style="fill:#cccccc"/>
 <path d="m6.950083 8.6471681c-0.0792943-0.0825013-0.1253431-0.1816287-0.1779549-0.2806501 0.050137 0.173522 0.1526711 0.3227321 0.2478888 0.4746426l-0.069934-0.1938886m4.411e-4 -1.039e-4c-0.078971-0.0825013-0.1253431-0.1817316-0.1779549-0.2803384 0.050137 0.173627 0.1527787 0.3227321 0.2479964 0.4746426l-0.070042-0.1943042m4.8876705-1.5110634c0.01251 0.3237919-0.09799 0.4811368-0.197946 0.7593866l-0.17973 0.086169c-0.146926 0.2752782 0.01459 0.1747688-0.09063 0.3936271-0.229631 0.1966109-0.695875 0.61503-0.845114 0.6533401-0.109118-0.00239 0.07381-0.1241063 0.09773-0.1716849-0.307709 0.2032404-0.246383 0.3050694-0.7162307 0.4288214l-0.01366-0.029613c-1.157903 0.5253496-2.7664905-0.5155807-2.7454028-1.935664-0.012265 0.0900865-0.035182 0.0675389-0.060789 0.1036982-0.059713-0.7305631 0.3500999-1.4643473 1.0411546-1.7643239 0.6759919-0.3225242 1.4685052-0.1903558 1.9526619 0.2451142-0.2661787-0.3359281-0.7956323-0.6920139-1.4226705-0.6590757-0.6145577 0.0096632-1.1896296 0.3861147-1.3813561 0.7949848-0.3147026 0.1909792-0.351391 0.7366935-0.4884615 0.8365472-0.1847438 1.3080716 0.3470874 1.8729056 1.2468678 2.537904 0.1412235 0.0919361 0.039755 0.1060153 0.058658 0.1759752-0.298886-0.134871-0.5723814-0.3386296-0.7975686-0.5880051 0.1195332 0.1684317 0.2484268 0.3321886 0.4150847 0.4609271-0.2819951-0.0918529-0.6585623-0.6584513-0.7681971-0.6815185 0.4857717 0.8386254 1.9707375 1.4704775 2.7487256 1.1566806-0.3599985 0.0135078-0.8171511 0.0072734-1.221369-0.1365315-0.170316-0.0843716-0.4008827-0.2587259-0.3595679-0.2912495 1.0614676 0.3820946 2.1576216 0.2892223 3.0758006-0.4204245 0.233805-0.1755689 0.489021-0.4740295 0.562828-0.47806-0.111066 0.1610854 0.01904 0.077462-0.06631 0.2196666 0.232417-0.3619877-0.10134-0.1474218 0.240475-0.6250975l0.126215 0.1675277c-0.04725-0.3007466 0.387122-0.6654972 0.342924-1.140784 0.09966-0.145271 0.111065 0.1565448 0.0054 0.4907896 0.146646-0.3708405 0.03879-0.4304825 0.07631-0.7366322 0.04045 0.1029293 0.09424 0.2121563 0.121631 0.3208524-0.09564-0.3585069 0.09772-0.6035069 0.145818-0.8119319-0.04753-0.020106-0.147485 0.1584151-0.170553-0.2648252 0.0036-0.1838835 0.05325-0.096363 0.07228-0.1416561-0.03726-0.020771-0.135532-0.1617609-0.19517-0.4320817 0.04295-0.063663 0.11565 0.1647108 0.174588 0.1739584-0.03796-0.2148464-0.103152-0.3787467-0.105938-0.5437183-0.172361-0.3471198-0.06103 0.046373-0.200582-0.1490334-0.183485-0.5513668 0.15208-0.1279904 0.174868-0.3783415 0.277734 0.3879944 0.436054 0.9897971 0.509032 1.2388702-0.0556-0.3038201-0.145258-0.59827-0.254936-0.8830659 0.08465 0.034445-0.13608-0.6249738 0.109947-0.1882985-0.26364-0.9306964-1.123784-1.8003792-1.915436-2.2084181 0.09684 0.085411 0.219248 0.19257 0.175534 0.2094641-0.393781-0.2258916-0.324923-0.2437635-0.381946-0.3391492-0.320621-0.1258301-0.341063 0.0102867-0.554092 3.118e-4 -0.6041207-0.3094321-0.720534-0.2764939-1.27667-0.4700708l0.025305 0.1141927c-0.4004523-0.1287395-0.4666205 0.0485241-0.8994576 2.078e-4 -0.026252-0.0196382 0.1387919-0.071799 0.2746789-0.0907099-0.3872187 0.0493553-0.3691435-0.0736694-0.7480777 0.0135078 0.093281-0.063071 0.1922645-0.105049 0.2917858-0.1586645-0.3156709 0.0184953-0.7539951 0.1771597-0.6187537 0.0327304-0.5150364 0.2216315-1.4297719 0.5327261-1.9430868 0.9968742l-0.016139-0.10401c-0.2351931 0.2721299-1.025769 0.8129606-1.0887096 1.1659293l-0.063048 0.014027c-0.1221153 0.1998115-0.2015172 0.4262227-0.298564 0.6316449-0.1599872 0.2630899-0.2346551 0.1013083-0.2118459 0.142559-0.3148102 0.6154352-0.4714622 1.1325764-0.6064884 1.5568236 0.096186 0.1387145 0.00247 0.8353003 0.038733 1.3926521-0.157943 2.7533015 2.0040907 5.4268025 4.3674265 6.0429655 0.3463342 0.120531 0.8613705 0.116374 1.2995872 0.127804-0.5168654-0.142351-0.5835716-0.075851-1.0873109-0.245218-0.363226-0.165211-0.4427355-0.353281-0.7000923-0.568366l0.1018884 0.173554c-0.5046001-0.172484-0.2935073-0.213007-0.7041807-0.338733l0.1088817-0.136117c-0.1627846-0.01247-0.4324067-0.266-0.5064291-0.407312l-0.1790415 0.0069c-0.2148585-0.255651-0.3295501-0.439564-0.3210505-0.582955l-0.057884 0.09975c-0.065415-0.109101-0.7910064-0.960091-0.4146543-0.761631-0.069934-0.0613-0.1628922-0.09975-0.2637047-0.27639l0.076594-0.0843c-0.1808598-0.225475-0.3333158-0.513294-0.3215884-0.608888 0.096616 0.125726 0.1635378 0.148586 0.2300288 0.170406-0.4574754-1.0941302-0.4831895-0.060265-0.8294162-1.1136645l0.073108-0.00561c-0.0560546-0.0818789-0.0904836-0.170199-0.1354565-0.2571683l0.031955-0.3063149c-0.3291198-0.3670999-0.091882-1.5609798-0.04422-2.2155876 0.0326-0.2662072 0.2747865-0.5498706 0.4583361-0.9943804l-0.1120021-0.0183914c0.2143205-0.360346 1.2235206-1.4474106 1.6911095-1.3916131 0.2263707-0.2742079-0.045081-0.001039-0.089408-0.0699287 0.497499-0.496255 0.6539358-0.3505788 0.9896186-0.439938 0.3618273-0.2070846-0.3107218 0.0809428-0.1392223-0.0789686 0.6259623-0.1539886 0.4434886-0.350371 1.2598863-0.4285083 0.08618 0.047173-0.1997958 0.072942-0.2715588 0.1341427 0.5212766-0.2460495 1.6499023-0.1898363 2.3833475 0.1364285 0.8503957 0.3835171 1.8058007 1.5164042 1.8445337 2.5822719l0.04295 0.011118c-0.02168 0.4237806 0.06728 0.9138636-0.08715 1.3638701l0.104395-0.2132255" style="fill:#f9548f"/>
</svg>

<svg xmlns="http://www.w3.org/2000/svg" width="16" height="16" version="1">
 <path style="fill:#cccccc" d="M 8.0061281,1.1376112e-6 C 4.1435181,1.1376112e-6 1.0122539,2.8631601 1.0122539,6.3950461 v 1.302897 c -2.172e-4,0.004 2.121e-4,0.0077 0,0.01171 -0.20019594,3.7667789 2.0694155,6.9718759 5.5756534,8.0086379 1.1116743,0.384736 1.6493382,0.260997 1.9156018,0.268542 C 10.631286,16.043413 11.55424,13.927914 10.717,12.074239 13.370265,12 14.999155,8.7858771 15,6.3950441 15,2.8631601 11.868737,1.1376112e-6 8.0061281,1.1376112e-6 Z"/>
 <path style="fill:#f9548f" d="M 6.950083,8.6471681 C 6.8707887,8.5646668 6.8247399,8.4655394 6.7721281,8.366518 6.8222651,8.54004 6.9247992,8.6892501 7.0200169,8.8411606 L 6.9500829,8.647272 M 6.950524,8.6471681 C 6.871553,8.5646668 6.8251809,8.4654365 6.7725691,8.3668297 6.8227061,8.5404567 6.9253478,8.6895618 7.0205655,8.8414723 L 6.9505235,8.6471681 M 11.838194,7.1361047 c 0.01251,0.3237919 -0.09799,0.4811368 -0.197946,0.7593866 l -0.17973,0.086169 c -0.146926,0.2752782 0.01459,0.1747688 -0.09063,0.3936271 -0.229631,0.1966109 -0.695875,0.61503 -0.845114,0.6533401 -0.109118,-0.00239 0.07381,-0.1241063 0.09773,-0.1716849 C 10.314795,9.060183 10.376121,9.162012 9.9062733,9.285764 L 9.8926133,9.256151 C 8.7347103,9.7815006 7.1261228,8.7405703 7.1472105,7.320487 7.1349455,7.4105735 7.1120285,7.3880259 7.0864215,7.4241852 7.0267085,6.6936221 7.4365214,5.9598379 8.1275761,5.6598613 8.803568,5.3373371 9.5960813,5.4695055 10.080238,5.9049755 9.8140593,5.5690474 9.2846057,5.2129616 8.6575675,5.2458998 8.0430098,5.255563 7.4679379,5.6320145 7.2762114,6.0408846 6.9615088,6.2318638 6.9248204,6.7775781 6.7877499,6.8774318 6.6030061,8.1855034 7.1348373,8.7503374 8.0346177,9.4153358 8.1758412,9.5072719 8.0743727,9.5213511 8.0932757,9.591311 7.7943897,9.45644 7.5208943,9.2526814 7.2957071,9.0033059 7.4152403,9.1717376 7.5441339,9.3354945 7.7107918,9.464233 7.4287967,9.3723801 7.0522295,8.8057817 6.9425947,8.7827145 7.4283664,9.6213399 8.9133322,10.253192 9.6913203,9.9393951 9.3313218,9.9529029 8.8741692,9.9466685 8.4699513,9.8028636 8.2996353,9.718492 8.0690686,9.5441377 8.1103834,9.5116141 9.171851,9.8937087 10.268005,9.8008364 11.186184,9.0911896 c 0.233805,-0.1755689 0.489021,-0.4740295 0.562828,-0.47806 -0.111066,0.1610854 0.01904,0.077462 -0.06631,0.2196666 0.232417,-0.3619877 -0.10134,-0.1474218 0.240475,-0.6250975 l 0.126215,0.1675277 c -0.04725,-0.3007466 0.387122,-0.6654972 0.342924,-1.140784 0.09966,-0.145271 0.111065,0.1565448 0.0054,0.4907896 0.146646,-0.3708405 0.03879,-0.4304825 0.07631,-0.7366322 0.04045,0.1029293 0.09424,0.2121563 0.121631,0.3208524 -0.09564,-0.3585069 0.09772,-0.6035069 0.145818,-0.8119319 -0.04753,-0.020106 -0.147485,0.1584151 -0.170553,-0.2648252 0.0036,-0.1838835 0.05325,-0.096363 0.07228,-0.1416561 -0.03726,-0.020771 -0.135532,-0.1617609 -0.19517,-0.4320817 0.04295,-0.063663 0.11565,0.1647108 0.174588,0.1739584 C 12.58466,5.6180693 12.519468,5.454169 12.516682,5.2891974 12.344321,4.9420776 12.455652,5.3355704 12.3161,5.140164 12.132615,4.5887972 12.46818,5.0121736 12.490968,4.7618225 12.768702,5.1498169 12.927022,5.7516196 13,6.0006927 12.9444,5.6968726 12.854742,5.4024227 12.745064,5.1176268 c 0.08465,0.034445 -0.13608,-0.6249738 0.109947,-0.1882985 -0.26364,-0.9306964 -1.123784,-1.8003792 -1.915436,-2.2084181 0.09684,0.085411 0.219248,0.19257 0.175534,0.2094641 C 10.721328,2.7044827 10.790186,2.6866108 10.733163,2.5912251 10.412542,2.465395 10.3921,2.6015118 10.179071,2.5915369 9.5749503,2.2821048 9.458537,2.315043 8.902401,2.1214661 L 8.927706,2.2356588 C 8.5272537,2.1069193 8.4610855,2.2841829 8.0282484,2.2358666 8.0019964,2.2162284 8.1670403,2.1640676 8.3029273,2.1451567 7.9157086,2.194512 7.9337838,2.0714873 7.5548496,2.1586645 7.6481306,2.0955935 7.7471141,2.0536155 7.8466354,2 7.5309645,2.0184953 7.0926403,2.1771597 7.2278817,2.0327304 6.7128453,2.2543619 5.7981098,2.5654565 5.2847949,3.0296046 l -0.016139,-0.10401 C 5.0334628,3.1977245 4.2428869,3.7385552 4.1799463,4.0915239 l -0.063048,0.014027 C 3.994783,4.3053624 3.9153811,4.5317736 3.8183343,4.7371958 3.6583471,5.0002857 3.5836792,4.8385041 3.6064884,4.8797548 3.2916782,5.49519 3.1350262,6.0123312 3,6.4365784 3.096186,6.5752929 3.00247,7.2718787 3.038733,7.8292305 2.88079,10.582532 5.0428237,13.256033 7.4061595,13.872196 7.7524937,13.992727 8.26753,13.98857 8.7057467,14 8.1888813,13.857649 8.1221751,13.924149 7.6184358,13.754782 7.2552098,13.589571 7.1757003,13.401501 6.9183435,13.186416 L 7.0202319,13.35997 C 6.5156318,13.187486 6.7267246,13.146963 6.3160512,13.021237 L 6.4249329,12.88512 c -0.1627846,-0.01247 -0.4324067,-0.266 -0.5064291,-0.407312 l -0.1790415,0.0069 C 5.5246038,12.229057 5.4099122,12.045144 5.4184118,11.901753 l -0.057884,0.09975 c -0.065415,-0.109101 -0.7910064,-0.960091 -0.4146543,-0.761631 -0.069934,-0.0613 -0.1628922,-0.09975 -0.2637047,-0.27639 l 0.076594,-0.0843 C 4.577903,10.653707 4.425447,10.365888 4.4371744,10.270294 4.5337904,10.39602 4.6007122,10.41888 4.6672032,10.4407 4.2097278,9.3465698 4.1840137,10.380435 3.837787,9.3270355 l 0.073108,-0.00561 C 3.8548404,9.2395466 3.8204114,9.1512265 3.7754385,9.0642572 L 3.8073935,8.7579423 C 3.4782737,8.3908424 3.7155115,7.1969625 3.7631735,6.5423547 3.7957735,6.2761475 4.03796,5.9924841 4.2215096,5.5479743 L 4.1095075,5.5295829 C 4.323828,5.1692369 5.3330281,4.0821723 5.800617,4.1379698 6.0269877,3.8637619 5.755536,4.1369308 5.711209,4.0680411 6.208708,3.5717861 6.3651448,3.7174623 6.7008276,3.6281031 7.0626549,3.4210185 6.3901058,3.7090459 6.5616053,3.5491345 7.1875676,3.3951459 7.0050939,3.1987635 7.8214916,3.1206262 7.9076716,3.1677992 7.6216958,3.1935682 7.5499328,3.2547689 8.0712094,3.0087194 9.1998351,3.0649326 9.9332803,3.3911974 10.783676,3.7747145 11.739081,4.9076016 11.777814,5.9734693 l 0.04295,0.011118 c -0.02168,0.4237806 0.06728,0.9138636 -0.08715,1.3638701 l 0.104395,-0.2132255"/>
</svg>
